packages/tokens/icons/insightPanel3/size16Px.svg

<svg viewBox="0 0 16 16" fill="none" xmlns="http://www.w3.org/2000/svg" width="1em" height="1em"><path d="M13.5 11.5V11.5C13.5 12.6046 12.6046 13.5 11.5 13.5H4.5C3.39543 13.5 2.5 12.6046 2.5 11.5L2.5 4.5C2.5 3.39543 3.39543 2.5 4.5 2.5L11.5 2.5C12.6046 2.5 13.5 3.39543 13.5 4.5V4.5" stroke="currentColor" stroke-linecap="round"/><path d="M13.3536 8.64645L13 8.29289L12.2929 9L12.6464 9.35355L13.3536 8.64645ZM14.1464 10.8536C14.3417 11.0488 14.6583 11.0488 14.8536 10.8536C15.0488 10.6583 15.0488 10.3417 14.8536 10.1464L14.1464 10.8536ZM12.6464 9.35355L14.1464 10.8536L14.8536 10.1464L13.3536 8.64645L12.6464 9.35355Z" fill="currentColor"/><circle cx="11.5" cy="7.5" r="2" stroke="currentColor"/><path d="M4.5 9.5L6.5 5.5L8.5 10.5L9.5 7.5" stroke="currentColor" stroke-linecap="round" stroke-linejoin="round"/></svg>

<svg xmlns="http://www.w3.org/2000/svg" fill="none" viewBox="0 0 16 16" width="1em" height="1em"><path stroke="currentColor" stroke-linecap="round" d="M13.5 11.5v0a2 2 0 0 1-2 2h-7a2 2 0 0 1-2-2v-7a2 2 0 0 1 2-2h7a2 2 0 0 1 2 2v0"/><path fill="currentColor" d="M13.354 8.646 13 8.293 12.293 9l.353.354.708-.708Zm.792 2.208a.5.5 0 0 0 .708-.708l-.708.708Zm-1.5-1.5 1.5 1.5.708-.708-1.5-1.5-.708.708Z"/><circle cx="11.5" cy="7.5" r="2" stroke="currentColor"/><path stroke="currentColor" stroke-linecap="round" stroke-linejoin="round" d="m4.5 9.5 2-4 2 5 1-3"/></svg>
